X: 1
T:O'Farrells Welcome to Limerick
M:9/8
L:1/8
Q:80
C:Arranged by T. Tully
S:Jig
K:HP
{g}cde{g}ece{g}fge|
{g}fed{g}c{d}c{e}c{gde}dB{G}A|
{g}cde{g}ece{ag}a2A|  !
a{GdG}afaf{gef}ec{d}A:|
a{GdG}afef{ag}a2e|
a{GdG}afaf{gef}ec{d}A|  !
a{GdG}afef{ag}a2e|
{g}faf{g}efe{gcd}cB{G}A:|
{g}cde{gef}ecaeca|  !
ecaecadB{G}A|
{g}cde{gef}ece{g}fge|
{g}fed{g}c{d}c{e}c{gde}dB{G}A:|  !
{g}A{GdGe}A{g}A{d}A{e}A{gf}g3|
{a}fgf{gf}g2e{gde}dB{d}G|
{g}A{GdGe}A{g}A{d}A{e}A{ag}a3|  !
{g}a2g{ag}a2f{gef}ec{d}A:|
a{g}a{g}a{fg}fef{ag}a2e|
a{g}a{g}a{fg}faf{gef}ec{d}A|  !
a{g}a{g}a{fg}fef{ag}a2e|
{g}faf{g}efe{gcd}cB{G}A:|
